X:1
T:Title
%%score { ( 1 3 ) | ( 2 4 ) }
L:1/8
Q:1/4=100
M:6/8
K:F
V:1 treble nm="Grand Piano"
V:3 treble 
V:2 bass 
V:4 bass 
V:1
 cdc ABA | [DG]3 [B,D]3 | [B,E][EG][Ed] [Ec]3 | FAd c3 | cdc ABA | [DG]3 [B,D]2 [B,D] | %6
w: Clinton~d.~Lowden * * * * *||||||
 [=B,D][B,E][B,F] [B,G][B,D][B,A] | G6 | C3 .F3 | z3 c3 | [DEB]2 [DEB] [DEB][EA][E_A] | A6 | %12
w: ||||||
 C3 .F3[K:bass] | [E,E]2[K:treble] [DF] z CC | .A3 z3 |[M:13/16] GAGE-<ED3/2 |[M:3/4] C3 .F3 | %17
w: |||||
 z2 z c3 | [DEB]2 [DEB][DEB] [EA][B,G] | F6 | F3[K:treble] .G3 | [CFA][CFA] [DFd][CFc] [CFA][CF] | %22
w: |||||
 [=B,D][B,E] [B,F] G2 A | F6 |] %24
w: ||
V:2
 [F,A,F][F,B,F][F,A,F] [F,C][F,D][F,C] | [B,,F,]3 [B,,G,]3 | [C,G,][C,C][C,B,] [C,B,]3 | %3
 [F,A,C][F,CF][F,B,F] [F,A,F]3 | [F,A,F][F,B,F][F,A,F] [F,C][F,D][F,C] | %5
 [B,,F,]3 [B,,F,]2 [B,,F,] | [G,,F,][G,,E,][G,,D,] [G,,F,][G,,F,][G,,F,] | [C,E,B,]6 | %8
 [F,,C,]3 [A,,F,]2 [_A,,D,] | z[K:treble] E[EB][K:bass] z EE | C,,E,,G,, z C=B, | %11
 F,,[A,C][G,C] z [E,C][D,C] | [F,,C,]3 [A,,F,]2 _A,, | z CF, z A,A, | %14
 z [F,=B,][F,B,D] [G,,F,][G,,E,][G,,D,] |[M:13/16] z/ z/ z/ z/ z G,-<G, z/ z | %16
[M:3/4] [F,,C,]3 [A,,F,]2 [_A,,D,] | z[K:treble] E .[EB]2[K:bass] EE | z2 z .C,3 | z A, .A,2 A,A, | %20
 B,,B,, B,,[B,,F,] [B,,F,][=B,,F,] | [C,F,]2 [B,,B,][A,,A,] [F,,F,][A,,F,] | %22
 [G,,F,][G,,E,] [G,,D,] [C,E,B,]2 [C,E,C] | [F,,F,][C,A,] [A,,A,] F,,3 |] %24
V:3
 x6 | x6 | x6 | x6 | x6 | x6 | x6 | x6 | z A,A, z C[=B,D] | EGd z BB | x6 | z FF F,FF | %12
 z A,A, z C[K:bass][D,=B,D] | z3[K:treble] [G,G]3 | z DG [=B,D][B,E][B,F] |[M:13/16] x13/2 | %16
[M:3/4] z A, .A,2 C[=B,D] | EG .d2 BB | x6 | z D .D2 DD | [F,D][F,D] [F,D][K:treble]D D[D_A] | x6 | %22
 x6 | z C C [A,C]3 |] %24
V:4
 x6 | x6 | x6 | x6 | x6 | x6 | x6 | x6 | x6 | [G,,E,]3[K:treble][K:bass] [C,,C,]3 | z3 C,3 | x6 | %12
 x6 | G,,3 G,,3 | G,,3 z3 | %15
[M:13/16] [C,E,B,]/-[C,E,B,]/-[C,E,B,]-<[C,E,B,][C,B,]-<[C,B,]-[C,E,B,]3/2 |[M:3/4] x6 | %17
 [G,,E,]3[K:treble][K:bass] [C,,C,]3 | C,,E,, .G,,2 C^C, | D,3 D,,3 | x6 | x6 | x6 | x6 |] %24

